assets/img/logo-circle.svg

<?xml version="1.0" encoding="UTF-8"?>
<svg width="1000px" height="1000px" viewBox="0 0 1000 1000" version="1.1" xmlns="http://www.w3.org/2000/svg" xmlns:xlink="http://www.w3.org/1999/xlink">
    <!-- Generator: Sketch 46.1 (44463) - http://www.bohemiancoding.com/sketch -->
    <title>Logo - Circle</title>
    <desc>Created with Sketch.</desc>
    <defs>
        <circle id="path-1" cx="500.5" cy="500.5" r="471.5"></circle>
        <linearGradient x1="50%" y1="46.804289%" x2="0%" y2="50%" id="linearGradient-3">
            <stop stop-color="#B71C1C" offset="0%"></stop>
            <stop stop-color="#F44336" offset="100%"></stop>
        </linearGradient>
        <linearGradient x1="-2.22044605e-14%" y1="16.4504481%" x2="80.8653507%" y2="68.4808129%" id="linearGradient-4">
            <stop stop-color="#1B5E20" offset="0%"></stop>
            <stop stop-color="#00C853" offset="100%"></stop>
        </linearGradient>
        <linearGradient x1="0%" y1="50%" x2="100%" y2="65.4491019%" id="linearGradient-5">
            <stop stop-color="#3E2723" offset="0%"></stop>
            <stop stop-color="#795548" offset="100%"></stop>
        </linearGradient>
    </defs>
    <g id="2017" stroke="none" stroke-width="1" fill="none" fill-rule="evenodd">
        <g id="Logo---Circle">
            <mask id="mask-2" fill="white">
                <use xlink:href="#path-1"></use>
            </mask>
            <use id="Oval" fill="#FFFFFF" xlink:href="#path-1"></use>
            <g id="Chocolate-Dipped-Strawberry" mask="url(#mask-2)">
                <g transform="translate(125.000000, 45.000000)" id="Choco-Strawberry">
                    <g>
                        <g id="Berry" transform="translate(405.776273, 405.935589) rotate(-45.000000) translate(-405.776273, -405.935589) translate(171.192321, 159.553603)" fill="url(#linearGradient-3)">
                            <path d="M162.628941,462.528785 C132.059582,443.557844 109.934401,419.05352 97.0487696,405.200561 C18.3072561,320.547905 0,220.101785 0,172.333738 C0,122.291089 19.253727,52.3437433 117.205719,12.8064776 C137.229874,4.72394329 176.269954,0.455339628 234.325958,0.00066658876 C234.340206,0.000110630037 234.354453,0.000221489637 234.368698,0.000332578799 L234.411439,0 C292.467443,0.455339628 331.507522,4.72394329 351.531677,12.8064776 C449.48367,52.3437433 468.737397,122.291089 468.737397,172.333738 C468.737397,220.101785 450.430141,320.547905 371.688627,405.200561 C358.802996,419.05352 336.677815,443.557844 306.108456,462.528785 L308.464951,462.528785 C276.531852,482.433763 252.224926,492.386252 235.544172,492.386252 C218.863419,492.386252 194.556493,482.433763 162.623394,462.528785 L162.628941,462.528785 Z" id="Combined-Shape"></path>
                        </g>
                        <path d="M103.136251,358.511889 C103.136251,358.511889 99.7612079,291.993579 158.10676,250.390529 C158.10676,250.390529 69.1918637,214.065478 40.2712466,100.937781 C40.2712466,100.937781 100.750446,93.0401875 165.186588,152.243035 C165.186588,152.243035 211.215175,93.0401875 192.80762,43.0544334 C192.80762,43.0544334 289.61701,87.2770784 268.823649,192.759439 C268.823649,192.759439 358.844161,197.921011 412.573275,252.039904 C412.573275,252.039904 394.844607,280.292722 340.475399,296.029695 C340.475399,296.029695 380.452187,355.213139 386.562177,412.242693 C386.562177,412.242693 323.173461,415.522039 240.64011,332.956284 C240.64011,332.956284 160.744723,368.796225 103.136251,358.511889 Z" id="Fill-20" fill="url(#linearGradient-4)" fill-rule="nonzero" transform="translate(226.422261, 227.657443) rotate(-75.000000) translate(-226.422261, -227.657443) "></path>
                        <path d="M291.3796,674.163087 C286.816668,663.924197 362.94406,625.6148 425.196645,585.296721 C446.966609,571.197337 477.11163,550.46721 490.682265,528.254304 C496.916317,518.050181 500.101615,488.555448 489.093869,459.263392 C470.836161,410.67889 420.075268,370.776437 467.237602,346.269216 C534.456689,311.339795 501.548326,400.883086 513.592562,452.235746 C521.04721,484.019912 541.377666,506.799845 547.772287,517.823585 C556.240806,532.422536 609.431312,579.618052 643.486345,643.64042 C673.083402,699.281937 684.635743,770.374317 684.849144,809.450835 C685.006354,832.158368 682.22116,888.2275 644.409074,854.96843 C629.744973,842.070057 597.722645,735.070166 576.591582,727.781595 C547.180477,717.637054 478.187896,789.335678 451.664382,772.268963 C430.310532,758.5287 474.42022,686.830137 451.345149,676.523196 C383.007321,645.998742 300.873291,695.466241 291.3796,674.163087 Z" id="Chocolate" fill="url(#linearGradient-5)" transform="translate(488.019412, 601.823846) scale(1, -1) rotate(16.000000) translate(-488.019412, -601.823846) "></path>
                    </g>
                </g>
            </g>
        </g>
    </g>
</svg>

<svg width="1000" height="1000" viewBox="0 0 1000 1000" xmlns="http://www.w3.org/2000/svg" xmlns:xlink="http://www.w3.org/1999/xlink"><title>Logo - Circle</title><defs><circle id="a" cx="500.5" cy="500.5" r="471.5"/><linearGradient x1="50%" y1="46.804%" x2="0%" y2="50%" id="c"><stop stop-color="#B71C1C" offset="0%"/><stop stop-color="#F44336" offset="100%"/></linearGradient><linearGradient x1="0%" y1="16.45%" x2="80.865%" y2="68.481%" id="d"><stop stop-color="#1B5E20" offset="0%"/><stop stop-color="#00C853" offset="100%"/></linearGradient><linearGradient x1="0%" y1="50%" y2="65.449%" id="e"><stop stop-color="#3E2723" offset="0%"/><stop stop-color="#795548" offset="100%"/></linearGradient></defs><g fill="none" fill-rule="evenodd"><mask id="b" fill="#fff"><use xlink:href="#a"/></mask><use fill="#FFF" xlink:href="#a"/><g mask="url(#b)"><path d="M162.629 462.529c-30.57-18.971-52.695-43.475-65.58-57.328C18.307 320.548 0 220.1 0 172.334 0 122.29 19.254 52.344 117.206 12.806 137.23 4.724 176.27.456 234.326.001h.043L234.41 0c58.056.455 97.097 4.724 117.12 12.806 97.953 39.538 117.206 109.485 117.206 159.528 0 47.768-18.307 148.214-97.048 232.867-12.886 13.853-35.011 38.357-65.58 57.328h2.356c-31.933 19.905-56.24 29.857-72.92 29.857-16.682 0-40.989-9.952-72.922-29.857h.006z" transform="rotate(-45 629.598 -8.877)" fill="url(#c)"/><path d="M103.136 358.512s-3.375-66.518 54.97-108.121c0 0-88.914-36.326-117.835-149.453 0 0 60.48-7.898 124.916 51.305 0 0 46.028-59.203 27.62-109.189 0 0 96.81 44.223 76.017 149.705 0 0 90.02 5.162 143.75 59.28 0 0-17.73 28.254-72.099 43.99 0 0 39.977 59.184 46.087 116.214 0 0-63.389 3.279-145.922-79.287 0 0-79.895 35.84-137.504 25.556z" fill="url(#d)" fill-rule="nonzero" transform="rotate(-75 318.245 168.706)"/><path d="M291.38 674.163c-4.563-10.239 71.564-48.548 133.817-88.866 21.77-14.1 51.915-34.83 65.485-57.043 6.234-10.204 9.42-39.699-1.588-68.99-18.258-48.585-69.019-88.488-21.856-112.995 67.219-34.93 34.31 54.614 46.355 105.967 7.454 31.784 27.785 54.564 34.18 65.588 8.468 14.599 61.658 61.794 95.713 125.816 29.597 55.642 41.15 126.734 41.363 165.81.157 22.708-2.628 78.777-40.44 45.518-14.664-12.898-46.686-119.898-67.817-127.186-29.412-10.145-98.404 61.554-124.928 44.487-21.353-13.74 22.756-85.439-.319-95.746-68.338-30.524-150.472 18.943-159.965-2.36z" fill="url(#e)" transform="scale(1 -1) rotate(16 4992.814 422.21)"/></g></g></svg>
